source/images/specialisation/iot.svg

<svg fill="none" height="45" viewBox="0 0 44 45" width="44" xmlns="http://www.w3.org/2000/svg"><path d="m22.0182 40.0536 21.3217-26.565c-.825-.6233-9.0292-7.33333-21.34-7.33333-12.31082 0-20.51499 6.71003-21.339988 7.33333l21.321688 26.565.0183.0183z" fill="#cddbfe"/><path d="m6.48071 20.7393 15.50999 19.3141.0092.0184.0183-.0184 15.51-19.3141c-.7883-.605-6.71-5.4175-15.5283-5.4175-8.8275 0-14.74002 4.8125-15.51919 5.4175z" fill="#6875f5"/></svg>

<svg width="44" height="45" viewBox="0 0 44 45" fill="none" xmlns="http://www.w3.org/2000/svg">
<path d="M22.0182 40.0536L43.3399 13.4886C42.5149 12.8653 34.3107 6.15527 21.9999 6.15527C9.68908 6.15527 1.48491 12.8653 0.659912 13.4886L21.9816 40.0536L21.9999 40.0719L22.0182 40.0536Z" fill="#CDDBFE"/>
<path d="M6.48071 20.7393L21.9907 40.0534L21.9999 40.0718L22.0182 40.0534L37.5282 20.7393C36.7399 20.1343 30.8182 15.3218 21.9999 15.3218C13.1724 15.3218 7.25988 20.1343 6.48071 20.7393V20.7393Z" fill="#6875F5"/>
</svg>
